COLOR/action 16/16/text-orientation-upright.svg

<svg height="16" width="16" xmlns="http://www.w3.org/2000/svg"><path d="m9.0864193 16h.9876537v-1.975309h2.962963v1.975309h.987655v-3.950618c0-1.975309-2.469136-1.975309-2.469136-1.975309s-2.4691357 0-2.4691357 1.975309zm.9876537-2.962963v-.493828c0-1.481481 1.481482-1.481481 1.481482-1.481481s1.481481 0 1.481481 1.481481v.493828zm-.4938267-9.8765449s-.493827 0-.493827.4938272c0 .4938273.493827.4938273.493827.4938273h2.9629627l-1.481482 1.234568v.7407409h-3.4567898s-.4938273 0-.4938273.4938272.4938273.4938272.4938273.4938272h3.4567898v.9876545h-1.4814807s-.493827 0-.493827.4938272.493827.4938272.493827.4938272h1.4814807s.987655 0 .987655-.9876544v-.9876545h3.45679s.493828 0 .493828-.4938272-.493828-.4938272-.493828-.4938272h-3.45679v-.2469136s1.975309-1.2345681 1.975309-1.7283953c0-.9876545-.987655-.9876545-.987655-.9876545zm.9876537-2.9629633c-.493827 0-.493827.4938272-.493827.4938272v.4938272h-2.4691358c-.4938273 0-.4938273.4938272-.4938273.4938272v.9876545s0 .4938272.4938273.4938272c.4938271 0 .4938271-.4938272.4938271-.4938272v-.4938272h6.9135807v.4938272s0 .4938272.493827.4938272c.493828 0 .493828-.4938272.493828-.4938272v-.9876545s0-.4938272-.493828-.4938272h-4.444445v-.4938272s0-.4938272-.493827-.4938272z" fill="#1a7fd4" stroke-width=".987654"/><path d="m2.5300743 1.5094212h1.2650371v2.9828125 5.0717682h2.5300745l-3.1931867 6.0409351-3.1319992-6.0409351h2.5300743z" fill="#c43ac4" fill-rule="evenodd" stroke-width="1.596038"/></svg>

<?xml version="1.0" encoding="UTF-8" standalone="no"?>
<svg
   xmlns:dc="http://purl.org/dc/elements/1.1/"
   xmlns:cc="http://creativecommons.org/ns#"
   xmlns:rdf="http://www.w3.org/1999/02/22-rdf-syntax-ns#"
   xmlns:svg="http://www.w3.org/2000/svg"
   xmlns="http://www.w3.org/2000/svg"
   xmlns:sodipodi="http://sodipodi.sourceforge.net/DTD/sodipodi-0.dtd"
   xmlns:inkscape="http://www.inkscape.org/namespaces/inkscape"
   height="16"
   width="16"
   version="1.1"
   id="svg6"
   sodipodi:docname="text-orientation-upright.svg"
   inkscape:version="0.92.4 (5da689c313, 2019-01-14)">
  <metadata
     id="metadata12">
    <rdf:RDF>
      <cc:Work
         rdf:about="">
        <dc:format>image/svg+xml</dc:format>
        <dc:type
           rdf:resource="http://purl.org/dc/dcmitype/StillImage" />
        <dc:title></dc:title>
      </cc:Work>
    </rdf:RDF>
  </metadata>
  <defs
     id="defs10" />
  <sodipodi:namedview
     pagecolor="#ffffff"
     bordercolor="#666666"
     borderopacity="1"
     objecttolerance="10"
     gridtolerance="10"
     guidetolerance="10"
     inkscape:pageopacity="0"
     inkscape:pageshadow="2"
     inkscape:window-width="1066"
     inkscape:window-height="750"
     id="namedview8"
     showgrid="false"
     inkscape:zoom="9.8333333"
     inkscape:cx="12"
     inkscape:cy="12"
     inkscape:window-x="0"
     inkscape:window-y="27"
     inkscape:window-maximized="0"
     inkscape:current-layer="svg6" />
  <path
     d="m 9.0864193,16 h 0.9876537 v -1.975309 h 2.962963 V 16 h 0.987655 v -3.950618 c 0,-1.975309 -2.469136,-1.975309 -2.469136,-1.975309 0,0 -2.4691357,0 -2.4691357,1.975309 z m 0.9876537,-2.962963 v -0.493828 c 0,-1.481481 1.481482,-1.481481 1.481482,-1.481481 0,0 1.481481,0 1.481481,1.481481 v 0.493828 z M 9.5802463,3.1604921 c 0,0 -0.493827,0 -0.493827,0.4938272 0,0.4938273 0.493827,0.4938273 0.493827,0.4938273 h 2.9629627 l -1.481482,1.234568 V 6.1234555 H 7.6049372 c 0,0 -0.4938273,0 -0.4938273,0.4938272 0,0.4938272 0.4938273,0.4938272 0.4938273,0.4938272 H 11.061727 V 8.0987644 H 9.5802463 c 0,0 -0.493827,0 -0.493827,0.4938272 0,0.4938272 0.493827,0.4938272 0.493827,0.4938272 h 1.4814807 c 0,0 0.987655,0 0.987655,-0.9876544 V 7.1111099 h 3.45679 c 0,0 0.493828,0 0.493828,-0.4938272 0,-0.4938272 -0.493828,-0.4938272 -0.493828,-0.4938272 h -3.45679 V 5.8765419 c 0,0 1.975309,-1.2345681 1.975309,-1.7283953 0,-0.9876545 -0.987655,-0.9876545 -0.987655,-0.9876545 z M 10.5679,0.1975288 c -0.493827,0 -0.493827,0.4938272 -0.493827,0.4938272 V 1.1851832 H 7.6049372 c -0.4938273,0 -0.4938273,0.4938272 -0.4938273,0.4938272 v 0.9876545 c 0,0 0,0.4938272 0.4938273,0.4938272 0.4938271,0 0.4938271,-0.4938272 0.4938271,-0.4938272 V 2.1728377 h 6.9135807 v 0.4938272 c 0,0 0,0.4938272 0.493827,0.4938272 C 16,3.1604921 16,2.6666649 16,2.6666649 V 1.6790104 c 0,0 0,-0.4938272 -0.493828,-0.4938272 H 11.061727 V 0.691356 c 0,0 0,-0.4938272 -0.493827,-0.4938272 z"
     id="path2"
     inkscape:connector-curvature="0"
     style="fill:#1a7fd4;stroke-width:0.98765445" />
  <path
     d="M 2.5300743,1.5094212 H 3.7951114 V 4.4922337 9.5640019 H 6.3251859 L 3.1319992,15.604937 0,9.5640019 h 2.5300743 z"
     id="path4"
     inkscape:connector-curvature="0"
     style="fill:#c43ac4;fill-rule:evenodd;stroke-width:1.59603751" />
</svg>
